svgs/duotone/user-doctor-message.svg

<svg xmlns="http://www.w3.org/2000/svg" viewBox="0 0 640 512"><!--! Font Awesome Pro 6.6.0 by @fontawesome - https://fontawesome.com License - https://fontawesome.com/license (Commercial License) Copyright 2024 Fonticons, Inc. --><defs><style>.fa-secondary{opacity:.4}</style></defs><path class="fa-secondary" d="M0 482.3C0 498.7 13.3 512 29.7 512l388.6 0c16.4 0 29.7-13.3 29.7-29.7c0-81-54-149.4-128-171.1l0 50.8c27.6 7.1 48 32.2 48 62l0 40c0 8.8-7.2 16-16 16l-16 0c-8.8 0-16-7.2-16-16s7.2-16 16-16l0-24c0-17.7-14.3-32-32-32s-32 14.3-32 32l0 24c8.8 0 16 7.2 16 16s-7.2 16-16 16l-16 0c-8.8 0-16-7.2-16-16l0-40c0-29.8 20.4-54.9 48-62l0-57.1c-6-.6-12.1-.9-18.3-.9l-91.4 0c-6.2 0-12.3 .3-18.3 .9l0 65.4c23.1 6.9 40 28.3 40 53.7c0 30.9-25.1 56-56 56s-56-25.1-56-56c0-25.4 16.9-46.8 40-53.7l0-59.1C54 332.9 0 401.3 0 482.3zM96 128a128 128 0 1 0 256 0A128 128 0 1 0 96 128zm24 296a24 24 0 1 0 48 0 24 24 0 1 0 -48 0z"/><path class="fa-primary" d="M384 48c0-26.5 21.5-48 48-48L592 0c26.5 0 48 21.5 48 48l0 128c0 26.5-21.5 48-48 48l-48 0-83.2 62.4c-2.4 1.8-5.7 2.1-8.4 .8s-4.4-4.1-4.4-7.2l0-56-16 0c-26.5 0-48-21.5-48-48l0-128z"/></svg>

<svg xmlns="http://www.w3.org/2000/svg" viewBox="0 0 640 512"><!--! Font Awesome Pro 6.4.0 by @fontawesome - https://fontawesome.com License - https://fontawesome.com/license (Commercial License) Copyright 2023 Fonticons, Inc. --><defs><style>.fa-secondary{opacity:.4}</style></defs><path class="fa-primary" d="M384 48c0-26.5 21.5-48 48-48H592c26.5 0 48 21.5 48 48V176c0 26.5-21.5 48-48 48H544l-83.2 62.4c-2.4 1.8-5.7 2.1-8.4 .8s-4.4-4.1-4.4-7.2V224H432c-26.5 0-48-21.5-48-48V48z"/><path class="fa-secondary" d="M224 256A128 128 0 1 0 224 0a128 128 0 1 0 0 256zm-96 55.2C54 332.9 0 401.3 0 482.3C0 498.7 13.3 512 29.7 512H418.3c16.4 0 29.7-13.3 29.7-29.7c0-81-54-149.4-128-171.1V362c27.6 7.1 48 32.2 48 62v40c0 8.8-7.2 16-16 16H336c-8.8 0-16-7.2-16-16s7.2-16 16-16V424c0-17.7-14.3-32-32-32s-32 14.3-32 32v24c8.8 0 16 7.2 16 16s-7.2 16-16 16H256c-8.8 0-16-7.2-16-16V424c0-29.8 20.4-54.9 48-62V304.9c-6-.6-12.1-.9-18.3-.9H178.3c-6.2 0-12.3 .3-18.3 .9v65.4c23.1 6.9 40 28.3 40 53.7c0 30.9-25.1 56-56 56s-56-25.1-56-56c0-25.4 16.9-46.8 40-53.7V311.2zM144 448a24 24 0 1 0 0-48 24 24 0 1 0 0 48z"/></svg>
